X:977
T:Xuann de Mieres (Arrg.)
R:Pasucis
C:Tradicional
S:Msica Tradicional Asturiana, (C) Tello & Tito. Asturies, 2001.
S:http://pagina.de/MusTradAst <telloytito@asturies.org>
N:Versin 1
A:Asturies
G:Arrg.
M:2/4
L:1/4
Q:2/4=100
K:C
G/A/|:"C"cG/A/|"C"cG/A/|"C"EE|"C"E/D/E/G/|"Dm"FF|"Dm"F/E/F/A/|"C"G/A/G/E/|"C"CG/A/|
"C"cG/A/|"C"cG/A/|"C"EE|"C"E/D/E/G/|"Dm"FD|"G"B,D|
[1 "C"C2-|"C"C G/A/:|[2 "C"C2-|"C" C C|
|:"Dm"DD|"Dm"DC/D/|"C"EE|"C"ED/E/|"Dm"FF|"Dm"F/E/F/A/|"C"G/A/G/E/|"C"CC|
"Dm"DD|"Dm"DC/D/|"C"EE|"C"ED/E/|"Dm"FD|"G"B,D|[1 "C"C2-|C C:|[2 "C"C2-|"C"C2||
